src/assets/images/chat-replay.svg

<svg fill="none" height="19" viewBox="0 0 20 19" width="20" xmlns="http://www.w3.org/2000/svg"><path d="m18.772 7.12253h-.7851v-3.74605c0-1.65276-1.4085-2.996841-3.1404-2.996841h-9.4211c-1.73191 0-3.14037 1.344081-3.14037 2.996841v3.74605h-.78509c-.43337 0-.785096.3349-.785096.74921s.351726.74921.785096.74921h.78509v3.74605c0 1.6528 1.40846 2.9968 3.14037 2.9968h.72464l2.94253 2.3646c.29991.2547.67675.3813 1.05043.3813.3667 0 .7309-.1221 1.0144-.3634l3.0202-2.3825h.6689c1.7319 0 3.1404-1.344 3.1404-2.9968v-3.74605h.7851c.4334 0 .7851-.3349.7851-.74921s-.3517-.74921-.7851-.74921zm-2.3553 5.24447c0 .8264-.7042 1.4984-1.5702 1.4984h-.9507c-.1822 0-.3596.0607-.5001.1716l-3.2754 2.5585-3.17731-2.554c-.14132-.1139-.32032-.1761-.5056-.1761h-1.01199c-.86596 0-1.57018-.672-1.57018-1.4984v-8.99052c0-.82638.70422-1.49842 1.57018-1.49842h9.4211c.866 0 1.5702.67204 1.5702 1.49842zm-3.1404-7.4921h-6.28071c-.86753 0-1.57019.67054-1.57019 1.49842v3.74608c0 .8278.70266 1.4984 1.57019 1.4984h6.28071c.8676 0 1.5702-.6706 1.5702-1.4984v-3.74608c0-.82788-.7026-1.49842-1.5702-1.49842zm-5.10307 4.49526c-.65006 0-1.17764-.50347-1.17764-1.12381 0-.62035.52758-1.12382 1.17764-1.12382s1.17764.50347 1.17764 1.12382c0 .62034-.52758 1.12381-1.17764 1.12381zm3.92547 0c-.6501 0-1.1776-.50347-1.1776-1.12381 0-.62035.5275-1.12382 1.1776-1.12382s1.1776.50347 1.1776 1.12382c0 .62034-.5275 1.12381-1.1776 1.12381z" fill="#fff"/></svg>

<svg width="20" height="19" viewBox="0 0 20 19" fill="none" xmlns="http://www.w3.org/2000/svg">
<path d="M18.772 7.12253H17.9869V3.37648C17.9869 1.72372 16.5784 0.379639 14.8465 0.379639H5.4254C3.69349 0.379639 2.28503 1.72372 2.28503 3.37648V7.12253H1.49994C1.06657 7.12253 0.714844 7.45743 0.714844 7.87174C0.714844 8.28605 1.06657 8.62095 1.49994 8.62095H2.28503V12.367C2.28503 14.0198 3.69349 15.3638 5.4254 15.3638H6.15004L9.09257 17.7284C9.39248 17.9831 9.76932 18.1097 10.143 18.1097C10.5097 18.1097 10.8739 17.9876 11.1574 17.7463L14.1776 15.3638H14.8465C16.5784 15.3638 17.9869 14.0198 17.9869 12.367V8.62095H18.772C19.2054 8.62095 19.5571 8.28605 19.5571 7.87174C19.5571 7.45743 19.2054 7.12253 18.772 7.12253ZM16.4167 12.367C16.4167 13.1934 15.7125 13.8654 14.8465 13.8654H13.8958C13.7136 13.8654 13.5362 13.9261 13.3957 14.037L10.1203 16.5955L6.94299 14.0415C6.80167 13.9276 6.62267 13.8654 6.43739 13.8654H5.4254C4.55944 13.8654 3.85522 13.1934 3.85522 12.367V3.37648C3.85522 2.5501 4.55944 1.87806 5.4254 1.87806H14.8465C15.7125 1.87806 16.4167 2.5501 16.4167 3.37648V12.367ZM13.2763 4.8749H6.99559C6.12806 4.8749 5.4254 5.54544 5.4254 6.37332V10.1194C5.4254 10.9472 6.12806 11.6178 6.99559 11.6178H13.2763C14.1439 11.6178 14.8465 10.9472 14.8465 10.1194V6.37332C14.8465 5.54544 14.1439 4.8749 13.2763 4.8749ZM8.17323 9.37016C7.52317 9.37016 6.99559 8.86669 6.99559 8.24635C6.99559 7.626 7.52317 7.12253 8.17323 7.12253C8.82329 7.12253 9.35087 7.626 9.35087 8.24635C9.35087 8.86669 8.82329 9.37016 8.17323 9.37016ZM12.0987 9.37016C11.4486 9.37016 10.9211 8.86669 10.9211 8.24635C10.9211 7.626 11.4486 7.12253 12.0987 7.12253C12.7488 7.12253 13.2763 7.626 13.2763 8.24635C13.2763 8.86669 12.7488 9.37016 12.0987 9.37016Z" fill="white"/>
</svg>
